assets/img/microillustration/flower.svg

<?xml version="1.0" encoding="UTF-8"?>
<svg viewBox="0 0 106 106" version="1.1" xmlns="http://www.w3.org/2000/svg" xmlns:xlink="http://www.w3.org/1999/xlink">
    <title>4. Elements_Microillustrations/Templates</title>
    <g id="4.-Elements_Microillustrations/Templates" stroke="none" stroke-width="1" fill="none" fill-rule="evenodd">
        <path d="M52.9997238,10 C59.7850769,10 65.2857143,15.5005138 65.2857143,22.2857143 C65.2857143,22.6737518 65.2677241,23.0575876 65.2325323,23.4364333 C67.4830297,20.8492664 70.8003593,19.2142857 74.4997238,19.2142857 C81.2850769,19.2142857 86.7857143,24.7147995 86.7857143,31.5 C86.7857143,35.1990923 85.150864,38.5163615 82.5642725,40.7687139 C82.9421207,40.7322755 83.3259633,40.7142857 83.7140096,40.7142857 C90.4993626,40.7142857 96,46.2147995 96,53 C96,59.7852005 90.4993626,65.2857143 83.7140096,65.2857143 C83.3259633,65.2857143 82.9421207,65.2677245 82.5632699,65.2325335 C85.1506969,67.4832994 86.7857143,70.8007186 86.7857143,74.5 C86.7857143,81.2852005 81.2850769,86.7857143 74.4997238,86.7857143 C70.8003593,86.7857143 67.4830297,85.1507336 65.2307696,82.5639707 C65.2677241,82.9424124 65.2857143,83.3262482 65.2857143,83.7142857 C65.2857143,90.4994862 59.7850769,96 52.9997238,96 C46.2143708,96 40.7142857,90.4994862 40.7142857,83.7142857 C40.7142857,83.3262482 40.7322741,82.9424124 40.7674624,82.5635667 C38.5165822,85.1507336 35.1990884,86.7857143 31.4997238,86.7857143 C24.7143708,86.7857143 19.2142857,81.2852005 19.2142857,74.5 C19.2142857,70.8007186 20.8491389,67.4832994 23.4358107,65.2309407 C23.057442,65.2677192 22.6735416,65.2857143 22.2854381,65.2857143 C15.5000851,65.2857143 10,59.7852005 10,53 C10,46.2147995 15.5000851,40.7142857 22.2854381,40.7142857 C22.6732017,40.7142857 23.0567697,40.7322493 23.4353552,40.7673896 C20.8490115,38.5164421 19.2142857,35.1991372 19.2142857,31.5 C19.2142857,24.7147995 24.7143708,19.2142857 31.4997238,19.2142857 C35.1990884,19.2142857 38.5165822,20.8492664 40.7689915,23.4360293 C40.7322741,23.0575876 40.7142857,22.6737518 40.7142857,22.2857143 C40.7142857,15.5005138 46.2143708,10 52.9997238,10 Z" id="Combined-Shape" fill="#009BBD"></path>
    </g>
</svg>

<svg viewBox="0 0 106 106" xmlns="http://www.w3.org/2000/svg"><path d="M53 10c6.785 0 12.286 5.5 12.286 12.286 0 .388-.018.772-.053 1.15a12.249 12.249 0 0 1 9.267-4.222c6.785 0 12.286 5.5 12.286 12.286 0 3.7-1.635 7.016-4.222 9.269.378-.037.762-.055 1.15-.055C90.499 40.714 96 46.214 96 53c0 6.785-5.5 12.286-12.286 12.286-.388 0-.772-.018-1.15-.053a12.25 12.25 0 0 1 4.222 9.267c0 6.785-5.5 12.286-12.286 12.286-3.7 0-7.017-1.635-9.27-4.222.038.378.056.762.056 1.15C65.286 90.5 59.786 96 53 96s-12.286-5.5-12.286-12.286c0-.388.018-.772.053-1.15a12.25 12.25 0 0 1-9.267 4.222c-6.786 0-12.286-5.5-12.286-12.286 0-3.7 1.635-7.017 4.222-9.27-.379.038-.762.056-1.15.056C15.5 65.286 10 59.786 10 53c0-6.785 5.5-12.286 12.285-12.286.388 0 .772.018 1.15.053a12.252 12.252 0 0 1-4.22-9.267c0-6.785 5.5-12.286 12.285-12.286 3.7 0 7.017 1.635 9.269 4.222a11.912 11.912 0 0 1-.055-1.15C40.714 15.5 46.214 10 53 10z" fill="#009BBD" fill-rule="evenodd"/></svg>
